X: 1
T: the Happy Farmer
R: jig
Z: 2010 John Chambers <jc:trillian.mit.edu>
S: http://www.math.mun.ca/~bshawyer/musicpdf/Happy%20Farmer.Jig.Violin.pdf 2009-1-12
M: 6/8
L: 1/8
K: G
D \
| "G"G2G BAG | d2d d2g | "D7"f2e d2c | BcA "G"G2 D \
| "G"G2G BAG | d2d d2g | "D"fed "A7"ed^c | "D"d3- "D7"d2 :|
|: d \
| "G"dBc ded | "E7"dcB "Am"c2c | cAB "D7"cdc | cBA "G"B2d \
| "G"g2d g2d | "G7"g2g "C"gfe | "G"dcB "D7"A2G | "G"G3- G2 :|
